bei/sprites/consulting.svg

<svg id="Layer_5" enable-background="new 0 0 64 64" height="512" viewBox="0 0 64 64" width="512" xmlns="http://www.w3.org/2000/svg"><g><path d="m21 53h2v2h-2z"/><path d="m21 57h2v2h-2z"/><path d="m44.043 33c.906 0 1.759-.399 2.338-1.095l4.088-4.905h7.531c2.757 0 5-2.243 5-5v-10c0-2.757-2.243-5-5-5h-5c0-3.309-2.691-6-6-6s-6 2.691-6 6h-5c-2.757 0-5 2.243-5 5v5.521c-1.903-1.574-4.343-2.521-7-2.521h-1c-3.316 0-6.49 1.525-8.566 4.099-3.165.764-5.434 3.622-5.434 6.901 0 3.452 1.48 6.688 4.054 8.969.335 3.11 2.262 5.742 4.946 7.081v2.158l-6.978 1.642c-5.901 1.388-10.022 6.592-10.022 12.654v4.496h42v-4.496c0-1.959-.436-3.825-1.217-5.504h3.748l4.088 4.904c.579.697 1.432 1.096 2.338 1.096 1.678 0 3.043-1.365 3.043-3.043v-2.957h3c2.757 0 5-2.243 5-5v-8c0-2.757-2.243-5-5-5h-20c-2.757 0-5 2.243-5 5v5.856c-.008-.002-.015-.005-.022-.006l-6.978-1.642v-2.158c2.684-1.339 4.611-3.972 4.946-7.081 2.323-2.059 3.744-4.896 3.999-7.969h6.055v2.957c0 1.678 1.365 3.043 3.043 3.043zm2.957-30c2.206 0 4 1.794 4 4s-1.794 4-4 4-4-1.794-4-4 1.794-4 4-4zm-28.407 43.123 2.157 2.877-2.329 3.105-2.014-5.468zm3.407 4.543 2.756 3.674-2.453 6.66h-.605l-2.453-6.66zm-19 7.838c0-5.13 3.487-9.533 8.481-10.708l2.963-.697 5.122 13.901h-8.566v-6h-2v6h-6zm32-18.504c0-1.654 1.346-3 3-3h20c1.654 0 3 1.346 3 3v8c0 1.654-1.346 3-3 3h-5v4.957c0 .575-.468 1.043-1.043 1.043-.311 0-.603-.137-.801-.375l-4.687-5.625h-5.849c-1.389-1.968-3.318-3.542-5.62-4.495zm6 18.504v2.496h-6v-6h-2v6h-8.566l5.121-13.901 2.963.697c4.995 1.176 8.482 5.579 8.482 10.708zm-13.406-11.866-2.014 5.468-2.33-3.106 2.157-2.877zm-3.594-1.971-2 2.667-2-2.667v-1.899c.644.147 1.312.232 2 .232s1.356-.085 2-.232zm5-10.667c0 3.86-3.141 7-7 7s-7-3.14-7-7v-4.697c0-.719.584-1.303 1.303-1.303.258 0 .508.076.723.219l2.671 1.781h6.303c1.654 0 3 1.346 3 3zm1.911-1.884c-.421-2.335-2.457-4.116-4.911-4.116h-5.697l-2.168-1.445c-.544-.363-1.178-.555-1.832-.555-1.822 0-3.303 1.481-3.303 3.303v2.684c-1.284-1.712-2-3.798-2-5.987 0-2.422 1.724-4.525 4.1-5l.472-.095.228-.305c1.691-2.254 4.383-3.6 7.2-3.6h1c4.963 0 9 4.038 9 9 0 2.243-.745 4.381-2.089 6.116zm4.038-7.116c-.178-1.962-.874-3.775-1.949-5.305v-7.695c0-1.654 1.346-3 3-3h5.35c.384 1.082 1.067 2.02 1.954 2.717-3.688 1.473-6.304 5.075-6.304 9.283v2h20v-2c0-4.208-2.616-7.81-6.304-9.283.887-.697 1.57-1.635 1.954-2.717h5.35c1.654 0 3 1.346 3 3v10c0 1.654-1.346 3-3 3h-8.469l-4.688 5.625c-.197.238-.489.375-.8.375-.575 0-1.043-.468-1.043-1.043v-4.957zm12.051-12c4.411 0 8 3.589 8 8h-16c0-4.411 3.589-8 8-8z"/><path d="m37 39h22v2h-22z"/><path d="m37 43h22v2h-22z"/><path d="m41 47h14v2h-14z"/><path d="m57 47h2v2h-2z"/></g></svg>

<svg height="512" viewBox="0 0 64 64" width="512" xmlns="http://www.w3.org/2000/svg"><path d="M21 53h2v2h-2zM21 57h2v2h-2z"/><path d="M44.043 33c.906 0 1.759-.399 2.338-1.095L50.469 27H58c2.757 0 5-2.243 5-5V12c0-2.757-2.243-5-5-5h-5c0-3.309-2.691-6-6-6s-6 2.691-6 6h-5c-2.757 0-5 2.243-5 5v5.521A10.95 10.95 0 0024 15h-1c-3.316 0-6.49 1.525-8.566 4.099A7.12 7.12 0 009 26a11.95 11.95 0 004.054 8.969c.335 3.11 2.262 5.742 4.946 7.081v2.158l-6.978 1.642A12.95 12.95 0 001 58.504V63h42v-4.496c0-1.959-.436-3.825-1.217-5.504h3.748l4.088 4.904A3.031 3.031 0 0051.957 59 3.046 3.046 0 0055 55.957V53h3c2.757 0 5-2.243 5-5v-8c0-2.757-2.243-5-5-5H38c-2.757 0-5 2.243-5 5v5.856l-.022-.006L26 44.208V42.05c2.684-1.339 4.611-3.972 4.946-7.081A11.937 11.937 0 0034.945 27H41v2.957A3.046 3.046 0 0044.043 33zM47 3c2.206 0 4 1.794 4 4s-1.794 4-4 4-4-1.794-4-4 1.794-4 4-4zM18.593 46.123L20.75 49l-2.329 3.105-2.014-5.468zM22 50.666l2.756 3.674L22.303 61h-.605l-2.453-6.66zM3 58.504c0-5.13 3.487-9.533 8.481-10.708l2.963-.697L19.566 61H11v-6H9v6H3zM35 40c0-1.654 1.346-3 3-3h20c1.654 0 3 1.346 3 3v8c0 1.654-1.346 3-3 3h-5v4.957a1.044 1.044 0 01-1.844.668L46.469 51H40.62A12.921 12.921 0 0035 46.505zm6 18.504V61h-6v-6h-2v6h-8.566l5.121-13.901 2.963.697A10.96 10.96 0 0141 58.504zM27.594 46.638l-2.014 5.468L23.25 49l2.157-2.877zM24 44.667l-2 2.667-2-2.667v-1.899c.644.147 1.312.232 2 .232s1.356-.085 2-.232zM29 34c0 3.86-3.141 7-7 7s-7-3.14-7-7v-4.697a1.304 1.304 0 012.026-1.084L19.697 30H26c1.654 0 3 1.346 3 3zm1.911-1.884C30.49 29.781 28.454 28 26 28h-5.697l-2.168-1.445A3.306 3.306 0 0013 29.303v2.684A9.958 9.958 0 0111 26a5.113 5.113 0 014.1-5l.472-.095.228-.305A9.045 9.045 0 0123 17h1c4.963 0 9 4.038 9 9a9.964 9.964 0 01-2.089 6.116zM34.949 25A10.929 10.929 0 0033 19.695V12c0-1.654 1.346-3 3-3h5.35a6.015 6.015 0 001.954 2.717C39.616 13.19 37 16.792 37 21v2h20v-2c0-4.208-2.616-7.81-6.304-9.283A6.015 6.015 0 0052.65 9H58c1.654 0 3 1.346 3 3v10c0 1.654-1.346 3-3 3h-8.469l-4.688 5.625A1.044 1.044 0 0143 29.957V25zM47 13c4.411 0 8 3.589 8 8H39c0-4.411 3.589-8 8-8z"/><path d="M37 39h22v2H37zM37 43h22v2H37zM41 47h14v2H41zM57 47h2v2h-2z"/></svg>
